app/assets/images/gear_light.svg

<svg height="11" viewBox="0 0 11 11" width="11" xmlns="http://www.w3.org/2000/svg"><path d="m11 6.53225977v-2.06451954l-1.57667383-.26277539c-.06400195-.19477734-.1420332-.38315234-.23304101-.56396484l.92870504-1.30016992-1.45982028-1.4598418-1.29793554.92709375c-.1816504-.09188867-.37101368-.17067187-.56684375-.23527539l-.26213086-1.57280664h-2.06451954l-.26213085 1.57282813c-.19583008.06460351-.38519336.14338671-.56682227.23527539l-1.29795703-.92709375-1.4598418 1.45984179.92870508 1.30019141c-.09098633.18079101-.16901758.36916601-.23301953.56394336l-1.57667383.2627539v2.06451954l1.58036914.26339843c.06402344.19301563.1419043.37971485.23248242.55891602l-.93186328 1.30461719 1.4598418 1.45982029 1.30683008-.93343162c.17834179.08969726.36405273.16680469.55605859.23024804l.26402148 1.58417188h2.06451954l.26402148-1.58419336c.19200586-.06344336.3777168-.14055078.55608008-.23022656l1.30680859.93341012 1.45982028-1.45982028-.93182028-1.3045957c.09057813-.17920117.16841602-.36590039.23246094-.5589375zm-5.5.34274023c-.75938672 0-1.375-.6155918-1.375-1.375 0-.75938672.61561328-1.375 1.375-1.375.7594082 0 1.375.61561328 1.375 1.375 0 .7594082-.6155918 1.375-1.375 1.375z" fill="#fff" fill-rule="evenodd" transform=""/></svg>

<?xml version="1.0" encoding="UTF-8" standalone="no"?>
<svg width="11px" height="11px" viewBox="0 0 11 11" version="1.1" xmlns="http://www.w3.org/2000/svg" xmlns:xlink="http://www.w3.org/1999/xlink" xmlns:sketch="http://www.bohemiancoding.com/sketch/ns">
    <!-- Generator: Sketch 3.4.1 (15681) - http://www.bohemiancoding.com/sketch -->
    <title>cog2</title>
    <desc>Created with Sketch.</desc>
    <defs></defs>
    <g id="Slides" stroke="none" stroke-width="1" fill="none" fill-rule="evenodd" sketch:type="MSPage">
        <g id="Slides::Index" sketch:type="MSArtboardGroup" transform="translate(-669.000000, -310.000000)" fill="#FFFFFF">
            <g id="cog2" sketch:type="MSLayerGroup" transform="translate(669.000000, 310.000000)">
                <g id="Group" sketch:type="MSShapeGroup">
                    <path d="M11,6.53225977 L11,4.46774023 L9.42332617,4.20496484 C9.35932422,4.0101875 9.28129297,3.8218125 9.19028516,3.641 L10.1189902,2.34083008 L8.65916992,0.880988281 L7.36123438,1.80808203 C7.17958398,1.71619336 6.9902207,1.63741016 6.79439063,1.57280664 L6.53225977,0 L4.46774023,0 L4.20560938,1.57282813 C4.0097793,1.63743164 3.82041602,1.71621484 3.63878711,1.80810352 L2.34083008,0.881009766 L0.880988281,2.34085156 L1.80969336,3.64104297 C1.71870703,3.82183398 1.64067578,4.01020898 1.57667383,4.20498633 L0,4.46774023 L0,6.53225977 L1.58036914,6.7956582 C1.64439258,6.98867383 1.72227344,7.17537305 1.81285156,7.35457422 L0.880988281,8.65919141 L2.34083008,10.1190117 L3.64766016,9.18558008 C3.82600195,9.27527734 4.01171289,9.35238477 4.20371875,9.41582812 L4.46774023,11 L6.53225977,11 L6.79628125,9.41580664 C6.98828711,9.35236328 7.17399805,9.27525586 7.35236133,9.18558008 L8.65916992,10.1189902 L10.1189902,8.65916992 L9.18716992,7.35457422 C9.27774805,7.17537305 9.35558594,6.98867383 9.41963086,6.79563672 L11,6.53225977 L11,6.53225977 Z M5.5,6.875 C4.74061328,6.875 4.125,6.2594082 4.125,5.5 C4.125,4.74061328 4.74061328,4.125 5.5,4.125 C6.2594082,4.125 6.875,4.74061328 6.875,5.5 C6.875,6.2594082 6.2594082,6.875 5.5,6.875 L5.5,6.875 Z" id="Shape"></path>
                </g>
            </g>
        </g>
    </g>
</svg>
